X:057 
T:Foghorn Hornpipe*, The  
F:file ID: cre.4/057fog
S:Grier MS (gan ainm)
Q:150
L:1/8
M:4/4
R:hornpipe
K:D
dB|A^GAF DFAc|dcec dBAF|G2BG F2AF|GEFE DCB,A,|
A2 AF DFAc|dcec Acef|g3f e2dc|d2 f2 d2:|
|:cd|e^dec Acef|gfaf d2 cd|BdAd BdAd|Bgfe dcdB|
A^GAF DFAc|dcec Acef|g3f e2dc|d2 f2 d2:|

%%%

